app/assets/images/heroicons/micro/building-library.svg

<svg width="16" height="16" viewBox="0 0 16 16" fill="none" xmlns="http://www.w3.org/2000/svg">
<path fill-rule="evenodd" clip-rule="evenodd" d="M7.60534 2.1123C7.84722 1.96257 8.15299 1.96257 8.39487 2.1123L13.6449 5.3623C13.9971 5.58032 14.1058 6.04257 13.8878 6.39477C13.6986 6.70039 13.3255 6.8227 13 6.70724V12.5H13.25C13.6642 12.5 14 12.8358 14 13.25C14 13.6642 13.6642 14 13.25 14H2.75C2.33579 14 2 13.6642 2 13.25C2 12.8358 2.33579 12.5 2.75 12.5H3V6.70731C2.67455 6.82265 2.30156 6.70032 2.1124 6.39477C1.89438 6.04257 2.00315 5.58032 2.35534 5.3623L7.60534 2.1123ZM4.5 8.75C4.5 8.33579 4.83579 8 5.25 8C5.66421 8 6 8.33579 6 8.75V11.75C6 12.1642 5.66421 12.5 5.25 12.5C4.83579 12.5 4.5 12.1642 4.5 11.75V8.75ZM8 8C7.58579 8 7.25 8.33579 7.25 8.75V11.75C7.25 12.1642 7.58579 12.5 8 12.5C8.41421 12.5 8.75 12.1642 8.75 11.75V8.75C8.75 8.33579 8.41421 8 8 8ZM10 8.75C10 8.33579 10.3358 8 10.75 8C11.1642 8 11.5 8.33579 11.5 8.75V11.75C11.5 12.1642 11.1642 12.5 10.75 12.5C10.3358 12.5 10 12.1642 10 11.75V8.75ZM8 6C8.55229 6 9 5.55228 9 5C9 4.44772 8.55229 4 8 4C7.44772 4 7 4.44772 7 5C7 5.55228 7.44772 6 8 6Z" fill="black"/>
</svg>

<svg xmlns="http://www.w3.org/2000/svg" viewBox="0 0 16 16" fill="currentColor" aria-hidden="true" data-slot="icon">
  <path fill-rule="evenodd" d="M7.605 2.112a.75.75 0 0 1 .79 0l5.25 3.25A.75.75 0 0 1 13 6.707V12.5h.25a.75.75 0 0 1 0 1.5H2.75a.75.75 0 0 1 0-1.5H3V6.707a.75.75 0 0 1-.645-1.345l5.25-3.25ZM4.5 8.75a.75.75 0 0 1 1.5 0v3a.75.75 0 0 1-1.5 0v-3ZM8 8a.75.75 0 0 0-.75.75v3a.75.75 0 0 0 1.5 0v-3A.75.75 0 0 0 8 8Zm2 .75a.75.75 0 0 1 1.5 0v3a.75.75 0 0 1-1.5 0v-3ZM8 6a1 1 0 1 0 0-2 1 1 0 0 0 0 2Z" clip-rule="evenodd"/>
</svg>
